X: 1
T:Intrada 7
C:Johann Pezel
Z:Transcribed by Frank Nordberg - http://www.musicaviva.com

V:1 Program 1 56 %Trumpet
V:2 Program 1 56 %Trumpet
V:3 Program 1 56 %Trumpet
V:4 Program 1 56 bass %Trumpet
V:5 Program 1 56 bass %Trumpet
M:3/4
L:1/8
Q:3/4=60
K:C
V:1
cdefed|e2c2ef|g2ef ga|gf e2 ef|g2ef ga|
V:2
G2G2c2|G2E2cd|e2cd ef|edc2cd|e2cd ef|
V:3
E2E2G2|E4G2|G2GF ED|EFG2GF|E2GF ED|
V:4
G,2C2E2|C2G,2ED|C2ED CB,|CDE2ED|C2EDCB,|
V:5
C,2C,2C,2|C,4C,2|C,2C,2C,2|C,4 z2|C,2C,2C,2|

V:1
gfe2ef|g2d3c|c3d ef|efd3c|c6:|
V:2
edc2cd|c2A2G2|G3G cB|c2A2G2|G6:|
V:3
EFG2GF|E2F2F2|E3GG2|G2F2F2|E6:|
V:4
CG,C2G,2|C4G,2|G,3B, CG,|C4G,2|G,6:|
V:5
C,D,E,2E,D,|C,2F,2G,2|C,3 z E,D,|C,2F,2G,2|C,6:|

V:1
|:d2d2cd|e2e3e|z6|z6|g2g2fg|
V:2
|:G2G2EG|c2c3c|G2G2EG|c2c2 z2|e2e2de|
V:3
|:G6|G2G3G|D2D2CD|E2E2 z2|C2E2G2|
V:4
|:B,2B,2A,B,|C6|G,6|C,2C,2 z2|G,2C2FE|
V:5
|:G,,6|C,6|z6|z6|C,4C,2|

V:1
a2g3f|efd3c|c3d ef|efd3c|c6:|
V:2
f2e3d|c2A2G2|G3G cB|c2A2G2|G6:|
V:3
FAc2G2|G2F2F2|E3GG2|G2F2F2|E6:|
V:4
C2G,3B,|C4G,2|G,3B, CG,|C4G,2|G,6:|
V:5
F,2G,2G,,2|C,2F,2G,2|C,3 z E,D,|C,2F,2 G,2|C,6:|

